images_elementary_svg/cmd/lc_objectposition.svg

<?xml version="1.0" encoding="UTF-8" standalone="no"?>
<svg
   xmlns:dc="http://purl.org/dc/elements/1.1/"
   xmlns:cc="http://creativecommons.org/ns#"
   xmlns:rdf="http://www.w3.org/1999/02/22-rdf-syntax-ns#"
   xmlns:svg="http://www.w3.org/2000/svg"
   xmlns="http://www.w3.org/2000/svg"
   xmlns:sodipodi="http://sodipodi.sourceforge.net/DTD/sodipodi-0.dtd"
   xmlns:inkscape="http://www.inkscape.org/namespaces/inkscape"
   height="24"
   width="24"
   version="1.1"
   id="svg44"
   sodipodi:docname="lc_objectposition.svg"
   inkscape:version="0.92.3 (2405546, 2018-03-11)">
  <metadata
     id="metadata50">
    <rdf:RDF>
      <cc:Work
         rdf:about="">
        <dc:format>image/svg+xml</dc:format>
        <dc:type
           rdf:resource="http://purl.org/dc/dcmitype/StillImage" />
        <dc:title></dc:title>
      </cc:Work>
    </rdf:RDF>
  </metadata>
  <defs
     id="defs48" />
  <sodipodi:namedview
     pagecolor="#ffffff"
     bordercolor="#666666"
     borderopacity="1"
     objecttolerance="10"
     gridtolerance="10"
     guidetolerance="10"
     inkscape:pageopacity="0"
     inkscape:pageshadow="2"
     inkscape:window-width="1366"
     inkscape:window-height="696"
     id="namedview46"
     showgrid="true"
     inkscape:zoom="19.666667"
     inkscape:cx="9.9785237"
     inkscape:cy="11.795539"
     inkscape:window-x="0"
     inkscape:window-y="0"
     inkscape:window-maximized="1"
     inkscape:current-layer="svg44">
    <inkscape:grid
       type="xygrid"
       id="grid860"
       spacingx="0.5"
       spacingy="0.5" />
  </sodipodi:namedview>
  <linearGradient
     id="a"
     gradientTransform="matrix(.5372 0 0 .57682 1.683 -21.997)"
     gradientUnits="userSpaceOnUse"
     x1="30.374"
     x2="30.374"
     y1="48.537"
     y2="58.939">
    <stop
       offset="0"
       stop-color="#fff"
       id="stop2" />
    <stop
       offset="0"
       stop-color="#fff"
       stop-opacity=".235"
       id="stop4" />
    <stop
       offset="1"
       stop-color="#fff"
       stop-opacity=".157"
       id="stop6" />
    <stop
       offset="1"
       stop-color="#fff"
       stop-opacity=".392"
       id="stop8" />
  </linearGradient>
  <linearGradient
     id="b"
     gradientTransform="matrix(0 -1 -1 0 29.55 28)"
     gradientUnits="userSpaceOnUse"
     x1="23.264"
     x2="10.336"
     y1="10.034"
     y2="10.034">
    <stop
       offset="0"
       stop-color="#ffa154"
       id="stop11" />
    <stop
       offset="1"
       stop-color="#f37329"
       id="stop13" />
  </linearGradient>
  <radialGradient
     id="c"
     cx="24.837"
     cy="36.421"
     gradientTransform="matrix(-.27598 0 0 .29583 24.866 2.354)"
     gradientUnits="userSpaceOnUse"
     r="15.645">
    <stop
       offset="0"
       id="stop16" />
    <stop
       offset="1"
       stop-opacity="0"
       id="stop18" />
  </radialGradient>
  <linearGradient
     id="d"
     gradientTransform="matrix(1.4 0 0 -1.5 .8 24.75)"
     gradientUnits="userSpaceOnUse"
     x1="6.689"
     x2="6.689"
     y1="5.48"
     y2="3.734">
    <stop
       offset="0"
       stop-color="#cd9ef7"
       id="stop21" />
    <stop
       offset="1"
       stop-color="#a56de2"
       id="stop23" />
  </linearGradient>
  <path
     style="opacity:0.5;fill:none;stroke:#000000;stroke-linecap:round;stroke-linejoin:round;stroke-opacity:0.75"
     d="M 1.5 4.5 L 1.5 6.5 L 22.5 6.5 L 22.5 4.5 L 1.5 4.5 z M 1.5 8.5 L 1.5 10.5 L 22.5 10.5 L 22.5 8.5 L 1.5 8.5 z M 1.5 12.5 L 1.5 14.5 L 22.5 14.5 L 22.5 12.5 L 1.5 12.5 z M 1.5 16.5 L 1.5 18.5 L 22.5 18.5 L 22.5 16.5 L 1.5 16.5 z "
     id="path28" />
  <path
     style="fill:#fafafa"
     d="M 2 5 L 2 6 L 22 6 L 22 5 L 2 5 z M 2 9 L 2 10 L 22 10 L 22 9 L 2 9 z M 2 17 L 2 18 L 22 18 L 22 17 L 2 17 z "
     id="path30" />
  <path
     d="M 2,17.5 H 22"
     id="path32"
     inkscape:connector-curvature="0"
     style="opacity:0.3;fill:none;stroke:#ffffff"
     sodipodi:nodetypes="cc" />
</svg>

<svg height="24" width="24" xmlns="http://www.w3.org/2000/svg"><path d="m1.5 4.5v2h21v-2zm0 4v2h21v-2zm0 4v2h21v-2zm0 4v2h21v-2z" style="opacity:.5;fill:none;stroke:#000;stroke-linecap:round;stroke-linejoin:round;stroke-opacity:.75"/><path d="m2 5v1h20v-1zm0 4v1h20v-1zm0 8v1h20v-1z" fill="#fafafa"/><path d="m2 17.5h20" fill="none" opacity=".3" stroke="#fff"/></svg>
